svg/furkot/scott-de-jonge/airplane.svg

<svg viewBox="0 0 512 512" xmlns="http://www.w3.org/2000/svg"><path d="m501.593 378.103c2.776.693 5.204.345 7.285-1.041 2.081-1.388 3.122-3.47 3.122-6.244v-37.463c0-6.939-3.122-12.488-9.366-16.651l-194.601-115.512c-6.244-3.469-9.366-9.02-9.366-16.65v-130.082c0-6.938-1.388-13.528-4.163-19.772-7.631-19.426-18.385-30.179-32.26-32.26-2.081-.694-4.163-1.041-6.244-1.041s-4.509.347-7.285 1.041c-.694 0-1.561.174-2.601.52s-2.255.867-3.642 1.561c-4.857 1.387-9.366 4.509-13.529 9.366s-7.284 9.366-9.366 13.528l-3.122 7.285c-2.081 6.244-3.122 12.834-3.122 19.772v130.082c0 7.631-3.122 13.182-9.366 16.65l-194.601 115.512c-6.244 4.163-9.366 9.712-9.366 16.651v37.463c0 2.774 1.041 4.856 3.122 6.244 2.081 1.386 4.509 1.734 7.285 1.041l192.52-62.439c2.775-1.389 5.203-1.216 7.284.52 2.082 1.734 3.122 3.988 3.122 6.764v100.943c0 7.632-2.775 13.529-8.325 17.691l-26.016 18.732c-5.55 4.163-8.325 10.059-8.325 17.691v24.976c0 2.774 1.04 4.855 3.122 6.244s4.509 1.733 7.284 1.04l64.52-18.731c6.939-2.082 13.875-2.082 20.814 0l64.52 18.731c2.775.693 5.203.348 7.284-1.04s3.122-3.47 3.122-6.244v-24.976c0-7.632-2.775-13.528-8.325-17.691l-26.016-18.732c-5.55-4.162-8.325-10.059-8.325-17.691v-100.943c0-3.469 1.04-5.898 3.122-7.284 2.081-1.389 4.509-1.389 7.284 0z"/></svg>

<svg xmlns="http://www.w3.org/2000/svg" viewBox="0 0 512 512"><path d="M501.593 378.103C504.369 378.796 506.797 378.448 508.878 377.062 510.959 375.674 512 373.592 512 370.818V333.355C512 326.416 508.878 320.867 502.634 316.704L308.033 201.192C301.789 197.723 298.667 192.172 298.667 184.542V54.46C298.667 47.522 297.279 40.932 294.504 34.688 286.873 15.262 276.119 4.509 262.244 2.428 260.163 1.734 258.081 1.387 256 1.387S251.491 1.734 248.715 2.428C248.021 2.428 247.154 2.602 246.114 2.948S243.859 3.815 242.472 4.509C237.615 5.896 233.106 9.018 228.943 13.875S221.659 23.241 219.577 27.403L216.455 34.688C214.374 40.932 213.333 47.522 213.333 54.46V184.542C213.333 192.173 210.211 197.724 203.967 201.192L9.366 316.704C3.122 320.867 0 326.416 0 333.355V370.818C0 373.592 1.041 375.674 3.122 377.062 5.203 378.448 7.631 378.796 10.407 378.103L202.927 315.664C205.702 314.275 208.13 314.448 210.211 316.184 212.293 317.918 213.333 320.172 213.333 322.948V423.891C213.333 431.523 210.558 437.42 205.008 441.582L178.992 460.314C173.442 464.477 170.667 470.373 170.667 478.005V502.981C170.667 505.755 171.707 507.836 173.789 509.225S178.298 510.958 181.073 510.265L245.593 491.534C252.532 489.452 259.468 489.452 266.407 491.534L330.927 510.265C333.702 510.958 336.13 510.613 338.211 509.225S341.333 505.755 341.333 502.981V478.005C341.333 470.373 338.558 464.477 333.008 460.314L306.992 441.582C301.442 437.42 298.667 431.523 298.667 423.891V322.948C298.667 319.479 299.707 317.05 301.789 315.664 303.87 314.275 306.298 314.275 309.073 315.664L501.593 378.103Z"/></svg>
